packages/icons/svg/Outline/person-remove.svg

<svg fill="none" height="24" viewBox="0 0 24 24" width="24" xmlns="http://www.w3.org/2000/svg"><path clip-rule="evenodd" d="m10 5.00007c1.103 0 2 .897 2 2s-.897 2-2 2c-1.10298 0-1.99998-.897-1.99998-2s.897-2 1.99998-2zm0 5.99993c2.206 0 4-1.794 4-4s-1.794-4-4-4-4 1.794-4 4 1.794 4 4 4zm11-5h-4c-.55 0-1 .45-1 1s.45 1 1 1h4c.55 0 1-.45 1-1s-.45-1-1-1zm-18 13.9999c0-3.86 3.141-7 7-7s7 3.14 7 7c0 .552-.447 1-1 1s-1-.448-1-1c0-2.757-2.243-5-5-5s-5 2.243-5 5c0 .552-.447 1-1 1s-1-.448-1-1z" fill="#6b7280" fill-rule="evenodd"/></svg>

<svg width="24" height="24" viewBox="0 0 24 24" fill="none" xmlns="http://www.w3.org/2000/svg">
<g id="Icon/Outline/person-remove">
<path id="Mask" fill-rule="evenodd" clip-rule="evenodd" d="M10 5C11.103 5 12 5.897 12 7C12 8.103 11.103 9 10 9C8.897 9 8 8.103 8 7C8 5.897 8.897 5 10 5ZM10 11C12.206 11 14 9.206 14 7C14 4.794 12.206 3 10 3C7.794 3 6 4.794 6 7C6 9.206 7.794 11 10 11ZM21 6H17C16.45 6 16 6.45 16 7C16 7.55 16.45 8 17 8H21C21.55 8 22 7.55 22 7C22 6.45 21.55 6 21 6ZM3 20C3 16.14 6.141 13 10 13C13.859 13 17 16.14 17 20C17 20.552 16.553 21 16 21C15.447 21 15 20.552 15 20C15 17.243 12.757 15 10 15C7.243 15 5 17.243 5 20C5 20.552 4.553 21 4 21C3.447 21 3 20.552 3 20Z" fill="#000000"/>
</g>
</svg>
